svg/furkot/freepik/golf.svg

<svg viewBox="0 0 512 512" xmlns="http://www.w3.org/2000/svg"><path d="m239.8 117.764c0-20.885-17.172-37.823-38.382-37.823-21.183 0-38.355 16.928-38.355 37.823 0 21.001 17.171 37.994 38.355 37.994 21.174-.001 38.382-16.993 38.382-37.994z"/><path d="m396.111 154.8c-1.5-8.112-8.157-12.773-8.554-13.126l-210.384-138.66c-8.328-5.483-19.674-3.279-25.348 4.932l-10.65 15.447c-3.966 6.053-2.231 13.921 3.74 17.841 6.007 3.975 12.592.984 16.459-5.077l8.121-20.008 188.559 124.667-149.979 27.081c-10.659 1.717-18.319 12.376-15.944 22.746l32.628 126.257-105.517 158.316c-6.369 10.804-2.52 24.733 8.41 30.894 11.048 6.278 24.968 2.42 31.328-8.374 0 0 110.115-165.57 110.53-166.699l5.736 23.134-16.629 132.084c-2.051 12.294 6.386 23.901 18.897 25.979 12.474 2.096 24.254-6.26 26.377-18.555l17.056-135.561c.541-3.27-.136-10.461-.922-13.551l-37.588-149.653 97.929-17.633c10.498-1.85 17.552-11.931 15.745-22.481z"/></svg>

<svg xmlns="http://www.w3.org/2000/svg" viewBox="0 0 512 512"><path d="M239.8 117.764C239.8 96.879 222.628 79.941 201.418 79.941 180.235 79.941 163.063 96.869 163.063 117.764 163.063 138.765 180.234 155.758 201.418 155.758 222.592 155.757 239.8 138.765 239.8 117.764Z"/><path d="M396.111 154.8C394.611 146.688 387.954 142.027 387.557 141.674L177.173 3.014C168.845-2.469 157.499-0.265 151.825 7.946L141.175 23.393C137.209 29.446 138.944 37.314 144.915 41.234 150.922 45.209 157.507 42.218 161.374 36.157L169.495 16.149 358.054 140.816 208.075 167.897C197.416 169.614 189.756 180.273 192.131 190.643L224.759 316.9 119.242 475.216C112.873 486.02 116.722 499.949 127.652 506.11 138.7 512.388 152.62 508.53 158.98 497.736 158.98 497.736 269.095 332.166 269.51 331.037L275.246 354.171 258.617 486.255C256.566 498.549 265.003 510.156 277.514 512.234 289.988 514.33 301.768 505.974 303.891 493.679L320.947 358.118C321.488 354.848 320.811 347.657 320.025 344.567L282.437 194.914 380.366 177.281C390.864 175.431 397.918 165.35 396.111 154.8Z"/></svg>
